symbolic/22x22/actions/view-calendar-wedding-anniversary.svg

<svg xmlns="http://www.w3.org/2000/svg" width="22" height="22"><defs><style id="current-color-scheme" type="text/css">.ColorScheme-Text{color:#323a41}</style></defs><path style="fill:currentColor" class="ColorScheme-Text" d="M6 2a6 6 0 0 0-6 6 6 6 0 0 0 6 6 6 6 0 0 0 6-6 6 6 0 0 0-6-6zm0 2a4 4 0 0 1 4 4 4 4 0 0 1-4 4 4 4 0 0 1-4-4 4 4 0 0 1 4-4z" transform="translate(3 3)"/><path style="fill:currentColor" class="ColorScheme-Text" d="M10 2a6 6 0 0 0-6 6 6 6 0 0 0 6 6 6 6 0 0 0 6-6 6 6 0 0 0-6-6zm0 2a4 4 0 0 1 4 4 4 4 0 0 1-4 4 4 4 0 0 1-4-4 4 4 0 0 1 4-4z" transform="translate(3 3)"/></svg>

<svg xmlns="http://www.w3.org/2000/svg" width="22" height="22" version="1.1">
 <defs>
  <style id="current-color-scheme" type="text/css">
   .ColorScheme-Text { color:#323a41; } .ColorScheme-Highlight { color:#4285f4; } .ColorScheme-NeutralText { color:#ff9800; } .ColorScheme-PositiveText { color:#4caf50; } .ColorScheme-NegativeText { color:#f44336; }
  </style>
 </defs>
 <g transform="translate(3,3)">
  <path style="fill:currentColor" class="ColorScheme-Text" d="M 6 2 A 6 6 0 0 0 0 8 A 6 6 0 0 0 6 14 A 6 6 0 0 0 12 8 A 6 6 0 0 0 6 2 z M 6 4 A 4 4 0 0 1 10 8 A 4 4 0 0 1 6 12 A 4 4 0 0 1 2 8 A 4 4 0 0 1 6 4 z"/>
  <path style="fill:currentColor" class="ColorScheme-Text" d="M 10,2 A 6,6 0 0 0 4,8 6,6 0 0 0 10,14 6,6 0 0 0 16,8 6,6 0 0 0 10,2 Z M 10,4 A 4,4 0 0 1 14,8 4,4 0 0 1 10,12 4,4 0 0 1 6,8 4,4 0 0 1 10,4 Z"/>
 </g>
</svg>
